src/img/svg/sn_mail.svg

<?xml version="1.0" encoding="iso-8859-1"?>
<!-- Generator: Adobe Illustrator 21.0.0, SVG Export Plug-In . SVG Version: 6.00 Build 0)  -->
<svg version="1.1" id="Layer_1" xmlns="http://www.w3.org/2000/svg" xmlns:xlink="http://www.w3.org/1999/xlink" x="0px" y="0px"
	 viewBox="0 0 98.624 98.624" style="enable-background:new 0 0 98.624 98.624;" xml:space="preserve">
<path d="M49.312,0C22.078,0,0,22.078,0,49.312s22.078,49.312,49.312,49.312s49.312-22.078,49.312-49.312
	C98.624,22.078,76.546,0,49.312,0z M78.811,28.881c0.022,0,0.041,0.012,0.063,0.013L51.357,56.411
	c-0.917,0.917-2.541,0.919-3.458-0.002L20.371,28.881H78.811z M18.452,30.722c0-0.015,0.008-0.027,0.008-0.041l18.705,18.705
	L18.452,68.099L18.452,30.722L18.452,30.722z M20.293,70.257c-0.085,0-0.158-0.037-0.24-0.048L39.02,51.242l7.023,7.023
	c0.955,0.955,2.228,1.48,3.585,1.48c1.358,0,2.629-0.527,3.584-1.48l6.796-6.796l18.788,18.788L20.293,70.257L20.293,70.257z
	 M80.652,68.402L61.864,49.614l18.788-18.787V68.402z"/>
</svg>

<svg width="99" height="99" viewBox="0 0 99 99" fill="none" xmlns="http://www.w3.org/2000/svg">
<path d="M49.312 0C22.078 0 0 22.078 0 49.312C0 76.546 22.078 98.624 49.312 98.624C76.546 98.624 98.624 76.546 98.624 49.312C98.624 22.078 76.546 0 49.312 0ZM78.811 28.881C78.833 28.881 78.852 28.893 78.874 28.894L51.357 56.411C50.44 57.328 48.816 57.33 47.899 56.409L20.371 28.881H78.811ZM18.452 30.722C18.452 30.707 18.46 30.695 18.46 30.681L37.165 49.386L18.452 68.099V30.722ZM20.293 70.257C20.208 70.257 20.135 70.22 20.053 70.209L39.02 51.242L46.043 58.265C46.998 59.22 48.271 59.745 49.628 59.745C50.986 59.745 52.257 59.218 53.212 58.265L60.008 51.469L78.796 70.257H20.293ZM80.652 68.402L61.864 49.614L80.652 30.827V68.402Z" fill="white"/>
</svg>
